packages/kaspersky-hexa-ui-icons/src/iconsSVGs/28x20/FlagJe.svg

<svg width="28" height="20" viewBox="0 0 28 20" fill="none" xmlns="http://www.w3.org/2000/svg">
<g clip-path="url(#clip0_5138_2745)">
<path d="M0 2C0 0.895431 0.895431 0 2 0H26C27.1046 0 28 0.895431 28 2V18C28 19.1046 27.1046 20 26 20H2C0.895431 20 0 19.1046 0 18V2Z" fill="white"/>
<mask id="mask0_5138_2745" style="mask-type:luminance" maskUnits="userSpaceOnUse" x="0" y="0" width="28" height="20">
<rect width="28" height="20" rx="2" fill="white"/>
</mask>
<g mask="url(#mask0_5138_2745)">
<path d="M26 19.5V20H2V19.5H26ZM27.5 18V2C27.5 1.17157 26.8284 0.5 26 0.5H2C1.17157 0.5 0.5 1.17157 0.5 2V18C0.5 18.8284 1.17157 19.5 2 19.5V20C0.895431 20 0 19.1046 0 18V2C2.57702e-07 0.895431 0.895431 0 2 0H26C27.1046 0 28 0.895431 28 2V18C28 19.1046 27.1046 20 26 20V19.5C26.8284 19.5 27.5 18.8284 27.5 18Z" fill="#F5F5F5"/>
<rect x="-6.31149" y="-2.58281" width="2.66667" height="49.3333" transform="rotate(-55 -6.31149 -2.58281)" fill="#E3243B"/>
<rect width="2.66667" height="49.3333" transform="matrix(-0.573576 -0.819152 -0.819152 0.573576 35.6295 -2.58281)" fill="#E3243B"/>
</g>
<g clip-path="url(#clip1_5138_2745)">
<path fill-rule="evenodd" clip-rule="evenodd" d="M15.7408 2.66666H13.5926L13.6799 2.61546L12.6931 2.04562L13.9689 2.18808L13.7895 1.33333L14.6667 2.04562L15.5438 1.33333L15.3645 2.18808L16.6403 2.04562L15.6535 2.61546L15.7408 2.66666Z" fill="#FAEF32"/>
<path fill-rule="evenodd" clip-rule="evenodd" d="M12.6667 5.16666C12.6667 4.79585 12.6667 4.38227 12.6667 3.99993C12.6667 3.26355 13.2636 2.66666 14 2.66666H15.3333C16.0697 2.66666 16.6667 3.26355 16.6667 3.99993C16.6667 4.38227 16.6667 4.79585 16.6667 5.16666C16.6667 6.95237 14.6667 7.66666 14.6667 7.66666C14.6667 7.66666 12.6667 6.95237 12.6667 5.16666Z" fill="#E3243B"/>
<mask id="mask1_5138_2745" style="mask-type:luminance" maskUnits="userSpaceOnUse" x="12" y="2" width="5" height="6">
<path fill-rule="evenodd" clip-rule="evenodd" d="M12.6667 5.16666C12.6667 4.79585 12.6667 4.38227 12.6667 3.99993C12.6667 3.26355 13.2636 2.66666 14 2.66666H15.3333C16.0697 2.66666 16.6667 3.26355 16.6667 3.99993C16.6667 4.38227 16.6667 4.79585 16.6667 5.16666C16.6667 6.95237 14.6667 7.66666 14.6667 7.66666C14.6667 7.66666 12.6667 6.95237 12.6667 5.16666Z" fill="white"/>
</mask>
<g mask="url(#mask1_5138_2745)">
<rect x="14.3333" y="6.66666" width="0.666667" height="0.666667" rx="0.333333" fill="#FAEF32"/>
<rect x="13.3333" y="5.33333" width="2.66667" height="0.666667" rx="0.333333" fill="#FAEF32"/>
<rect x="13.3333" y="4" width="2.66667" height="0.666667" rx="0.333333" fill="#FAEF32"/>
</g>
</g>
</g>
<defs>
<clipPath id="clip0_5138_2745">
<rect width="28" height="20" fill="white"/>
</clipPath>
<clipPath id="clip1_5138_2745">
<rect width="5.33333" height="6.66667" fill="white" transform="translate(12 1.33333)"/>
</clipPath>
</defs>
</svg>

<svg xmlns="http://www.w3.org/2000/svg" width="28" height="20" fill="none" viewBox="0 0 28 20"><g clip-path="url(#a)"><path fill="#fff" d="M0 2C0 .8954.8954 0 2 0h24c1.1046 0 2 .8954 2 2v16c0 1.1046-.8954 2-2 2H2c-1.1046 0-2-.8954-2-2z"/><mask id="b" width="28" height="20" x="0" y="0" maskUnits="userSpaceOnUse" style="mask-type:luminance"><rect width="28" height="20" fill="#fff" rx="2"/></mask><g mask="url(#b)"><path fill="#f5f5f5" d="M26 19.5v.5H2v-.5zm1.5-1.5V2c0-.8284-.6716-1.5-1.5-1.5H2C1.1716.5.5 1.1716.5 2v16c0 .8284.6716 1.5 1.5 1.5v.5c-1.1046 0-2-.8954-2-2V2C0 .8954.8954 0 2 0h24c1.1046 0 2 .8954 2 2v16c0 1.1046-.8954 2-2 2v-.5c.8284 0 1.5-.6716 1.5-1.5"/><path fill="#e3243b" d="m-6.3115-2.5828 1.5296-2.1844 40.4114 28.2964L34.1 25.7136z"/><path fill="#e3243b" d="m35.6295-2.5828-1.5296-2.1844-40.4114 28.2964 1.5295 2.1844z"/></g><g clip-path="url(#c)"><path fill="#faef32" fill-rule="evenodd" d="M15.7408 2.6667h-2.1482l.0873-.0512-.9868-.5699 1.2758.1425-.1794-.8548.8772.7123.8771-.7123-.1793.8548 1.2758-.1425-.9868.5699z" clip-rule="evenodd"/><path fill="#e3243b" fill-rule="evenodd" d="M12.6667 5.1667V3.9999c0-.7363.5969-1.3332 1.3333-1.3332h1.3333c.7364 0 1.3334.5968 1.3334 1.3332v1.1668c0 1.7857-2 2.5-2 2.5s-2-.7143-2-2.5" clip-rule="evenodd"/><mask id="d" width="5" height="6" x="12" y="2" maskUnits="userSpaceOnUse" style="mask-type:luminance"><path fill="#fff" fill-rule="evenodd" d="M12.6667 5.1667V3.9999c0-.7363.5969-1.3332 1.3333-1.3332h1.3333c.7364 0 1.3334.5968 1.3334 1.3332v1.1668c0 1.7857-2 2.5-2 2.5s-2-.7143-2-2.5" clip-rule="evenodd"/></mask><g fill="#faef32" mask="url(#d)"><rect width="1" height="1" x="14" y="7" rx="0"/><rect width="3" height="1" x="13" y="5" rx="0"/><rect width="3" height="1" x="13" y="4" rx="0"/></g></g></g><defs><clipPath id="a"><path fill="#fff" d="M0 0h28v20H0z"/></clipPath><clipPath id="c"><path fill="#fff" d="M12 1.3333h5.3333V8H12z"/></clipPath></defs></svg>
